X:1
T:Title
%%score { 1 | ( 2 3 ) }
L:1/8
M:3/4
K:G
V:1 treble nm="Grand Piano"
V:2 treble 
V:3 treble 
V:1
 z2 z2[Q:1/4=100] G2 | B3 B AG | [FA]4 [FA][GB] | [Ac]3 [Ac] [GB][FA] | B4 Bc | %5
 [DBd]3 [DBd] [DAc][DGB] | [EGc]4 [Ge]2 | [DGd]3 [B,DG] [A,DF]>[K:bass][G,^CE] |[M:2/4] [F,D]4 | %9
[M:1/4] [F,D]2 |[M:3/4][K:treble] [Fc]3 [FA] EF | A G3 Bc | [DBd]3 [DBd] [DAc][DGB] | [DFA]4 D2 | %14
 G3 G AB | [Ed] [Ec]3 [Ge]2 | [Gd]4 [CDF]2 |[M:2/4] [B,DG]4 |] %18
V:2
 z2 z2 [G,B,D]2 | [G,DG]3 [G,DG] [G,CD][G,B,] | [D,D]4 [D,D]2 | [D,D]3 [D,D] [D,D][D,D] | %4
 z2 z2 .G2 | G,3 G, G,G, | C,4 [C,C]2 | B,,3 G,, A,,>A,, |[M:2/4] D,4 |[M:1/4] D,2 | %10
[M:3/4] [D,A,]3 [D,C] [D,G,C][D,CD] | z2 z2[K:treble] .G2 | G,3 G, F,G, | D,4 [D,C]2 | %14
 [G,B,D]3 [G,B,D] [G,CF][G,D=F] | [C,C] [C,G,]3 [C,C]2 | [D,B,]4 D,2 |[M:2/4] G,,4 |] %18
V:3
 x6 | x6 | x6 | x6 | [G,DG]4 [G,D]-[G,DA] | x6 | x6 | x6 |[M:2/4] x4 |[M:1/4] x2 |[M:3/4] x6 | %11
 [G,CD] [G,B,D]3[K:treble] [G,D]-[G,DA] | x6 | x6 | x6 | x6 | x6 |[M:2/4] x4 |] %18

